americans/img/token-stats-inner-big.svg

<svg width="658" height="388" viewBox="0 0 658 388" fill="none" xmlns="http://www.w3.org/2000/svg">
<path d="M20.2462 4.93493V0H327.652H637.754V4.93493H20.2462Z" fill="#FFF8DC"/>
<path d="M20.2462 382.564V388H328.326H637.754V382.564H20.2462Z" fill="#FFF8DC"/>
<path d="M0 33.2571H6.74872V358.963H0V33.2571Z" fill="#FFF8DC"/>
<path d="M6.74872 19.096H13.4974V33.2571H6.74872V19.096Z" fill="#FFF8DC"/>
<path d="M13.4974 4.93493H20.2462V19.096H13.4974V4.93493Z" fill="#FFF8DC"/>
<path d="M0 354.242H6.74872V28.5368H0V354.242Z" fill="#FFF8DC"/>
<path d="M6.74872 368.403H13.4974V354.242H6.74872V368.403Z" fill="#FFF8DC"/>
<path d="M13.4974 382.564H20.2462V368.403H13.4974V382.564Z" fill="#FFF8DC"/>
<path d="M658 33.2571H651.251V358.963H658V33.2571Z" fill="#FFF8DC"/>
<path d="M651.251 19.096H644.503V33.2571H651.251V19.096Z" fill="#FFF8DC"/>
<path d="M644.503 4.93493H637.754V19.096H644.503V4.93493Z" fill="#FFF8DC"/>
<path d="M658 354.242H651.251V28.5368H658V354.242Z" fill="#FFF8DC"/>
<path d="M651.251 368.403H644.503V354.242H651.251V368.403Z" fill="#FFF8DC"/>
<path d="M644.503 382.564H637.754V368.403H644.503V382.564Z" fill="#FFF8DC"/>
</svg>

<svg width="658" height="388" fill="none" xmlns="http://www.w3.org/2000/svg"><path d="M20.246 4.935V0h617.508v4.935H20.246ZM20.246 382.564V388h617.508v-5.436H20.246ZM0 33.257h6.749v325.706H0V33.257ZM6.749 19.096h6.748v14.161H6.75V19.096ZM13.497 4.935h6.75v14.161h-6.75V4.935Z" fill="#FFF8DC"/><path d="M0 354.242h6.749V28.537H0v325.705ZM6.749 368.403h6.748v-14.161H6.75v14.161ZM13.497 382.564h6.75v-14.161h-6.75v14.161ZM658 33.257h-6.749v325.706H658V33.257ZM651.251 19.096h-6.748v14.161h6.748V19.096ZM644.503 4.935h-6.749v14.161h6.749V4.935Z" fill="#FFF8DC"/><path d="M658 354.242h-6.749V28.537H658v325.705ZM651.251 368.403h-6.748v-14.161h6.748v14.161ZM644.503 382.564h-6.749v-14.161h6.749v14.161Z" fill="#FFF8DC"/></svg>
